X:1
T:Vergebens ist all Müh
T:Ludwig Senfl
T:Source  : DDT 34---Leipzig---Breitkopf & Härtel---J.Wolf---1908. First print : Newe Deudsche Geistliche Gesenge---Wittemberg---G.Rhau---1544. Editor : André Vierendeels (07/08/17).
T:Notes : Original clefs : C1, C3, C4, F4 Original note values have been halved Editorial accidentals above the staff
T:Vergebens ist all Müh
T:©
T:©
T:©
T:©
T:©
C:Ludwig Senfl
Z:©
%%score [ 1 [ 2 3 ] 4 ]
L:1/8
Q:1/4=120
M:2/2
K:C
V:1 treble nm="Soprano" snm="S"
V:2 treble-8 nm="Tenor 1" snm="T 1"
V:3 treble-8 nm="Tenor 2" snm="T 2"
V:4 bass nm="Bass" snm="B"
V:1
 E8 | G4 G4 | A3 G AB c2- | c2 BA GF G2 | F2 A3 G G2 | A4 B2 E2- | EF G2 E4 | z4 z2 B2 | c4 d4 | %9
w: Ver-|ge- bens|ist _ _ _ _|_ _ _ _ _ _|* * * all|Müh und Kost,||ver-|ge- bens|
w: Al-|so find't|auch _ _ _ _|_ _ _ _ _ _|* * * der|Mesch kein _|_ _ _ Trost,|al-|so find't|
 c3 B AG A2 | G4 z2 B2 | B2 c3 BAG | AG G3 F F2 | G4 z2 B2 | c2 A3 G G2 |1 A8 :|2 A4 z2 E2 || %17
w: ist all Müh _ und|Kost, wenn|nicht _ _ _ _|_ _ _ _ das|Haus Gott|sel- * * ber|baut.|* Denn|
w: auch der Mensch _ kein|Trost, wo|er sei- * * *|* * nen _ ei-|gen Kräf-|* * * ten|_|traut. *|
 F2 E2 G4 | z2 E3 F G2 | C2 c2 c3 B | A6 B2- | B2 c4 B2 | G2 B2 A4 | z2 G2 A2 d2 | e4 d4 | %25
w: wo die Stadt,|den _ _|wo die Stadt _|Gott mit|_ _ _|sei- nem Rat|nicht selbst er-|hält noch|
w: ||||||||
 G2 c4 B2 | c4 z2 A2 | G4 FGAB | c2 GA BcdB | c3 d e4 | d4 c4 | d4 z2 d2 | B2 c4 B2 | c2 c2 B4 | %34
w: schüt- * *|zet, man|wach und _ _ _|_ hüt _ _ _ _ _|ohn _ _|Got- tes|Güt ist|ge- wisz, dasz|solchs nicht nüt-|
w: |||||||||
 A4 G4 | A2 c4 BA | G8 | A4 z2 A2 | BABc d4 | d4 A4 | z4 A4 | E2 c3 BAG | F2 c2 A2 A2 | A8 |] %44
w: * zet,|dasz solchs nicht _|nüt-|zet, dasz|solchs _ _ _ nicht|nüt- zet,|dasz|solchs nicht _ _ _|_ _ _ nüt-|zet.|
w: ||||||||||
V:2
 e4 A2 e2- | e2 dc BA B2 | A4 A4 | c4 c4 | d4 e4 | f4 g4 | e4 z2 g2- | g2 fe dc d2 | c2 e3 d d2 | %9
w: Ver- * ge-|* * * * * bens|ist, ver-|ge- bens|ist all|Müh und|Kost, all|_ _ _ _ _ _|* Müh- * und|
w: Al- * so|_ _ _ _ _ find't|auch, al-|so find't|auch der|Mensch kein|Trost, der|_ _ _ _ _ _|* Mensch _ _|
 e4 f4 | e3 d Bc d2 | G4 A2 F2 | G4 A4 | c3 B/A/ BG g2 | e2 f2 d4 |1 z8 :|2 z2 d2 c4 || A2 c2 B4 | %18
w: _ Kost,|wenn _ nich _ das|Haus Gott _|sel- *||* ber baut.||Denn wo|die _ _|
w: kein Trost,|wo er sei- * *|nen ei- gen|Kräf- *||* ten traut.||||
 A4 A2 B2 | c3 d efge | f2 a4 g2- | gfed c2 e2- | ed B2 d2 A2 | c2 B2 d4 | z2 G3 A B2 | c2 BA G4 | %26
w: Stadt Gott mit|sei- * * * * *|* nem Rat|_ _ _ _ nicht selbst|_ _ er- hält noch|schüt _ zet,|noch _ _|schüt- * * *|
w: ||||||||
 A4 z2 AB | cdec d4 | G2 c2 B4 | A4 G2 g2 | g3 f e2 c2 | f4 z2 f2 | e4 d4 | c2 A2 G4 | d4 e4 | %35
w: zet, nicht _|_ _ _ _ _|* selbst er-|* hält noch|schüt- * * *|zet, man|wach und|hüt ohn Got-|* tes|
w: |||||||||
 A4 z2 A2 | cdef g4 | c2 ag fe f2 | d4 z2 D2- | DEFG A4 | z2 A3 Bcd | e2 A2 z2 c2 | d2 e2 f4 | %43
w: Güt ist|ge- * * * wisz|dasz solchs _ _ _ _|nicht nüt-|* * * * zet,|nüt- * * *|* zet, dasz|solchs nicht nüt-|
w: ||||||||
 e8 |] %44
w: zet.|
w: |
V:3
 z8 | z8 | z8 | z8 | z8 | z8 | E8 | G4 G4 | A4 B4 | c4 d4 | B8 | z4 A4 | c4 d4 | e4 d4 | %14
w: ||||||Ver-|ge- bens|ist all|Müh und|Kost,|wenn|nicht das|Haus Gott|
w: ||||||Al-|so find't|auch der|mnsch kein|Trost,|wo|er sei-|nen ei-|
 c2 d2 B4 |1 A8 :|2 A8 || z4 G4 | c6 B2 | A4 G4 | c4 d4 | e8 | z4 d4 | e4 f4 | g6 f2 | e2 dc d4 | %26
w: sel- * ber|baut.||Denn|wo die|Stadt Gott|mit sei'm|Rat|nicht|selbst er|hält noch|schüt- * * *|
w: gen Kräf- ten|_|traut.||||||||||
 c8 | z4 f4 | e4 d4 | c8 | B4 c4 | A8 | G8 | z4 g4 | f4 e4 | c4 d4 | e6 d2 | c4 d4 | B8 | A8- | %40
w: zet,|man|wach und|hüt,|ohn Got-|tes|Güt|ist|g'wisz, dasz|solchs nicht|nüt- *|||zet.|
w: ||||||||||||||
 A8- | A8- | A8- | A8 |] %44
w: _||||
w: ||||
V:4
 z8 | z8 | A,4 D,2 A,2- | A,2 G,F, E,D, E,2 | D,2 F,2 E,4 | D,4 z2 C,2- | C,D, E,2 A,,2 E,2 | %7
w: ||Ver- * ge-||* * bens|ist, ver-|* * ge- bens ist|
w: ||Al- * so|_ _ _ _ _ _|* fin- det|auch al-|* * * so fin-|
 E,2 D,C, B,,A,, B,,2 | A,,2 C,2 B,,4 | A,,4 z2 D,2 | E,6 D,2 | E,2 C,2 F,4 | E,4 D,4 | %13
w: |* Müh und|Kost, wenn|nicht das|Hau _ Gott|sel- ber|
w: det _ _ _ _ auch|der Mensch kein|Trost wo|er sei-|nen ei- gen|Kräf- ten|
 C,4 z2 G,2 | A,2 D,2 G,4 |1 z8 :|2 z2 D,2 F,2 C,2 || D,2 A,,2 E,4 | A,,6 G,,2 | A,,2 F,,2 C,4 | %20
w: baut, Gott|sel- ber baut.||Denn wo _|_ die Stadt|Gott mit|sei- nem Rat,|
w: traut, Kräf-|* ten traut.||||||
 F,,2 F,4 G,2- | G,2 A,4 G,2 | E,2 G,2 F,3 E, | C,2 E,2 D,4 | C,4 z4 | z8 | z4 F,4 | E,4 D,4 | %28
w: nicht selbst _|_ _ er-|hält _ _ _|_ noch schüt-|zet,||man|wach und|
w: ||||||||
 C,4 z4 | z4 C,4 | G,4 A,4 | D,4 z2 D,2 | E,2 C,2 G,4 | C,4 z4 | z4 C,4 | F,4 F,4 | E,4 C,4 | %37
w: hüt,|ohn|Got- tes|Güt ohn|Got- * tes|Güt|ist|g'wisz, dasz|sol- *|
w: |||||||||
 F,4 z2 D,2 | G,2 G,,3 A,,B,,C, | D,4 z2 D,2 | D,E,F,G, A,G,A,B, | C4 F,3 E, | D,2 C,2 D,4 | %43
w: ches nicht|nüt- * * * *|zet, nicht|nüt- * * * * * * *|zet, nicht _|_ nüt- *|
w: ||||||
 A,,8 |] %44
w: zet.|
w: |

